teeny/solid/info.svg

<svg width="15" height="15" viewBox="0 0 15 15" fill="none" xmlns="http://www.w3.org/2000/svg">
<path fill-rule="evenodd" clip-rule="evenodd" d="M8 0.98999V1.99999H7V0.98999H8ZM7 13H2V14H13V13H8L8 3.99999L4 3.99999V4.99999H7L7 13Z" fill="black"/>
</svg>

<svg viewBox="0 0 15 15" xmlns="http://www.w3.org/2000/svg"><path fill-rule="evenodd" d="M8 .98v1.01H7V.98h1ZM7 12.99H2v1h11v-1H8V3.98H4v1h3v8Z"/></svg>
